src/svg-dark/dnd-no-drop.svg

<svg xmlns="http://www.w3.org/2000/svg" id="svg6085" width="32" height="32" version="1.1">
 <defs id="defs6087">
  <filter id="filter855" style="color-interpolation-filters:sRGB" width="1.096" height="1.096" x="-.05" y="-.05">
   <feGaussianBlur id="feGaussianBlur857" stdDeviation=".36"/>
  </filter>
  <filter id="filter903" style="color-interpolation-filters:sRGB" width="1.096" height="1.096" x="-.05" y="-.05">
   <feGaussianBlur id="feGaussianBlur905" stdDeviation=".3"/>
  </filter>
 </defs>
 <path id="path823" style="opacity:0.3;fill:#000000;fill-opacity:1;stroke:none;stroke-width:1.1925025;filter:url(#filter855)" d="m 15.206861,7.5186 c -0.939324,0.057 -1.741243,0.9614 -1.6808,1.8962 l 0.115818,1.9567 c 0.02495,0.4215 -0.323846,0.5005 -0.410862,0.1858 L 13.08582,11.0322 C 12.957392,10.149 12.074938,9.4427 11.180913,9.5076 10.197235,9.5966 9.4063475,10.6211 9.5748159,11.5899 l 0.6307611,3.4252 c 0.006,0.1511 -0.03729,0.9294 -0.03729,0.9294 L 9.3465628,14.2716 c -1.2003391,0.8998 -2.9462434,2.0506 -2.1420412,4.5964 0.9517899,3.0132 3.7981234,6.6431 5.5409914,6.632 l 9.253593,-3e-4 c 1.000894,0 1.325592,-0.01 1.688448,-0.8837 1.625048,-4.1801 1.290468,-8.0747 1.2717,-10.8649 l -0.01327,-1.9729 c -0.0072,-1.1305 -0.734939,-2.3144 -1.867556,-2.2308 -0.766146,0.044 -1.468777,0.6317 -1.643448,1.3756 l -0.21084,1.1177 c -0.06287,0.3334 -0.174373,0.1962 -0.149404,-0.074 l 0.236919,-2.5672 c 0.0655,-1.0093 -0.891072,-1.9615 -1.904906,-1.8963 -0.876371,0.054 -1.645804,0.837 -1.6808,1.7102 l -0.199568,1.7867 c -0.04661,0.4174 -0.315129,0.4279 -0.33616,-0.037 L 17.111811,9.2297 C 17.073921,8.282 16.157846,7.4595 15.206905,7.5194 Z"/>
 <path id="path4236-1-58-5-6-0" style="fill:#f4bb8e;fill-opacity:1;stroke:none;stroke-width:1.1925025" d="M 19.4375 7.5019531 C 18.839329 7.5388111 18.248339 8.1422398 18.224609 8.734375 A 0.50005 0.50005 0 0 1 18.222656 8.7695312 L 18.023438 10.556641 C 18.005934 10.713383 17.969783 10.853881 17.882812 10.996094 C 17.795839 11.138307 17.60676 11.3248 17.326172 11.3125 C 17.045583 11.300203 16.871885 11.097674 16.796875 10.947266 C 16.721866 10.796857 16.698806 10.650623 16.691406 10.486328 L 16.613281 8.7519531 A 0.50005 0.50005 0 0 0 16.611328 8.75 C 16.585828 8.1122002 15.882471 7.478948 15.238281 7.5195312 A 0.50005 0.50005 0 0 1 15.232422 7.5195312 C 14.596627 7.5610522 13.984751 8.2543107 14.025391 8.8828125 A 0.50005 0.50005 0 0 0 14.025391 8.8847656 L 14.140625 10.841797 C 14.16133 11.191583 14.023945 11.579955 13.642578 11.712891 C 13.451895 11.779354 13.218557 11.746091 13.054688 11.634766 C 12.890817 11.52344 12.79605 11.357959 12.75 11.191406 L 12.603516 10.666016 A 0.50005 0.50005 0 0 1 12.591797 10.603516 C 12.505127 10.007486 11.830146 9.4676115 11.222656 9.5078125 C 10.559642 9.5709259 9.9555782 10.355341 10.068359 11.003906 L 10.066406 11 L 10.697266 14.425781 A 0.50005 0.50005 0 0 1 10.705078 14.496094 C 10.711318 14.65329 10.699643 14.84453 10.689453 15.060547 C 10.679263 15.276564 10.667969 15.472656 10.667969 15.472656 A 0.50005 0.50005 0 0 1 9.71875 15.666016 L 9.1914062 14.587891 C 8.7331987 14.940543 8.243018 15.280802 7.9375 15.732422 C 7.521024 16.348061 7.3173635 17.063633 7.6816406 18.216797 C 8.1317865 19.64188 9.0582024 21.268414 10.066406 22.501953 C 10.570508 23.118722 11.095529 23.637702 11.574219 23.988281 C 12.052903 24.338861 12.480885 24.5017 12.742188 24.5 A 0.50005 0.50005 0 0 1 12.746094 24.5 L 22 24.5 C 22.498782 24.5 22.773459 24.476472 22.878906 24.429688 C 22.983078 24.383441 23.064932 24.306698 23.222656 23.929688 C 24.798632 19.87123 24.477994 16.079541 24.458984 13.253906 L 24.445312 11.28125 C 24.44239 10.822171 24.284836 10.335707 24.037109 10.009766 C 23.789382 9.6838241 23.500904 9.518408 23.115234 9.546875 A 0.50005 0.50005 0 0 1 23.107422 9.546875 C 22.578242 9.577266 22.041734 10.026648 21.921875 10.537109 L 21.714844 11.632812 C 21.69298 11.748747 21.67871 11.842643 21.59375 11.976562 C 21.551272 12.043523 21.485359 12.140255 21.320312 12.203125 C 21.155268 12.265994 20.91208 12.207651 20.802734 12.119141 C 20.584038 11.942114 20.603558 11.826102 20.585938 11.724609 C 20.568238 11.623117 20.566472 11.527239 20.576172 11.421875 L 20.8125 8.8671875 C 20.856311 8.1921016 20.122049 7.4580551 19.439453 7.5019531 A 0.50005 0.50005 0 0 0 19.4375 7.5019531 z"/>
 <path id="path826" style="color:#000000;font-style:normal;font-variant:normal;font-weight:normal;font-stretch:normal;font-size:medium;line-height:normal;font-family:sans-serif;font-variant-ligatures:normal;font-variant-position:normal;font-variant-caps:normal;font-variant-numeric:normal;font-variant-alternates:normal;font-feature-settings:normal;text-indent:0;text-align:start;text-decoration:none;text-decoration-line:none;text-decoration-style:solid;text-decoration-color:#000000;letter-spacing:normal;word-spacing:normal;text-transform:none;writing-mode:lr-tb;direction:ltr;text-orientation:mixed;dominant-baseline:auto;baseline-shift:baseline;text-anchor:start;white-space:normal;shape-padding:0;clip-rule:nonzero;display:inline;overflow:visible;visibility:visible;opacity:1;isolation:auto;mix-blend-mode:normal;color-interpolation:sRGB;color-interpolation-filters:linearRGB;solid-color:#000000;solid-opacity:1;vector-effect:none;fill:#eba384;fill-opacity:1;fill-rule:nonzero;stroke:none;stroke-width:2;stroke-linecap:round;stroke-linejoin:round;stroke-miterlimit:4;stroke-dasharray:none;stroke-dashoffset:0;stroke-opacity:1;color-rendering:auto;image-rendering:auto;shape-rendering:auto;text-rendering:auto;enable-background:accumulate" d="m 19.40625,7.0039062 c -0.876371,0.054 -1.644691,0.8357844 -1.679688,1.7089844 L 17.527344,10.5 c -0.04661,0.4174 -0.31686,0.427791 -0.337891,-0.03711 l -0.07813,-1.7324222 c -0.03789,-0.9477 -0.953356,-1.7708375 -1.904297,-1.7109376 -0.939324,0.057 -1.742083,0.9616844 -1.68164,1.8964844 l 0.117187,1.9550784 c 0.02495,0.4215 -0.325093,0.500247 -0.412109,0.185547 L 13.085938,10.533203 C 12.95751,9.6500031 12.075666,8.9429125 11.181641,9.0078125 c -0.983678,0.089 -1.7758907,1.1132315 -1.6074222,2.0820315 l 0.6308592,3.425781 c 0.006,0.1511 -0.03711,0.929687 -0.03711,0.929687 L 9.3457031,13.771484 C 8.145364,14.671284 6.4008759,15.823341 7.2050781,18.369141 8.156868,21.382341 11.003226,25.0111 12.746094,25 H 22 c 1.000894,0 1.324644,-0.0091 1.6875,-0.882812 1.625048,-4.180101 1.290252,-8.075035 1.271484,-10.865235 l -0.01367,-1.972656 c -0.0072,-1.1305 -0.73457,-2.316022 -1.867187,-2.232422 -0.766146,0.044 -1.467907,0.6330531 -1.642578,1.376953 l -0.210938,1.117188 c -0.06287,0.3334 -0.175359,0.195981 -0.15039,-0.07422 L 21.3125,8.9003906 c 0.0655,-1.0093 -0.892416,-1.9616843 -1.90625,-1.8964844 z m 0.0625,0.9882813 v 0.00977 a 1.0001,1.0001 0 0 0 0.002,0 c 0.351358,-0.023 0.865872,0.4930844 0.84375,0.8339844 L 20.078125,11.375 c -0.01323,0.1432 -0.01169,0.278147 0.01563,0.435547 0.02731,0.1573 -0.02654,0.356465 0.394531,0.697265 0.210537,0.1705 0.688839,0.28441 1.009766,0.16211 0.320927,-0.1222 0.442074,-0.306781 0.517578,-0.425781 0.151007,-0.2381 0.1634,-0.369078 0.191406,-0.517579 l 0.203125,-1.076171 c 0.06662,-0.2764 0.435197,-0.586816 0.726563,-0.603516 a 1.0001,1.0001 0 0 0 0.01563,0 c 0.20503,-0.015 0.315286,0.04493 0.486328,0.269531 0.171042,0.225 0.304394,0.617803 0.30664,0.970703 l 0.01367,1.97461 c 0.01926,2.8639 0.32912,6.55284 -1.203125,10.49414 -0.106929,0.2509 -0.115609,0.23535 -0.07813,0.21875 C 22.718614,23.956609 22.497117,24 22,24 h -9.253906 a 1.0001,1.0001 0 0 0 -0.0078,0 c -0.08689,5e-4 -0.438579,-0.100716 -0.86914,-0.416016 -0.430562,-0.3154 -0.93202,-0.80829 -1.416016,-1.40039 C 9.4851323,20.999194 8.5826,19.410006 8.1582031,18.066406 7.83175,17.033006 8.0046037,16.524619 8.3515625,16.011719 8.4994864,15.793019 8.8040493,15.600784 9.03125,15.396484 l 0.2402344,0.488282 A 1.0001,1.0001 0 0 0 11.166016,15.5 c 0,0 0.01117,-0.199369 0.02148,-0.417969 0.01031,-0.2186 0.02706,-0.368622 0.01758,-0.607422 a 1.0001,1.0001 0 0 0 -0.01563,-0.140625 L 10.56054,10.917969 c -0.05696,-0.3275 0.359579,-0.86425 0.703125,-0.90625 0.323671,-0.014 0.787073,0.354862 0.832031,0.664062 a 1.0001,1.0001 0 0 0 0.02539,0.123047 l 0.146484,0.523438 c 0.07035,0.2545 0.222663,0.532209 0.50586,0.724609 0.283194,0.1923 0.699314,0.253119 1.033203,0.136719 0.667776,-0.2328 0.862919,-0.882294 0.833984,-1.371094 L 14.523438,8.8554688 a 1.0001,1.0001 0 0 0 0,-0.00977 c -0.02096,-0.3242 0.407236,-0.8094312 0.742187,-0.8320312 a 1.0001,1.0001 0 0 0 0.0039,0 c 0.33752,-0.021 0.83064,0.4240531 0.84375,0.7519531 L 16.191406,10.5 c 0.0096,0.2124 0.03705,0.419209 0.158203,0.662109 0.121156,0.243 0.431693,0.617725 0.955079,0.640625 0.523384,0.023 0.863969,-0.322687 1.005859,-0.554687 0.141889,-0.232 0.185631,-0.437384 0.208984,-0.646485 l 0.201172,-1.7851558 a 1.0001,1.0001 0 0 0 0.0039,-0.072266 c 0.01247,-0.311 0.42417,-0.7322531 0.744141,-0.7519531 z"/>
 <circle id="circle830" style="opacity:0.3;fill:#000000;fill-opacity:1;stroke:none;stroke-width:0;stroke-linecap:round;stroke-linejoin:round;stroke-miterlimit:4;stroke-dasharray:none;stroke-dashoffset:0;stroke-opacity:1;paint-order:normal;filter:url(#filter903)" cx="22.5" cy="22" r="7.5"/>
 <circle id="path828-6" style="opacity:1;fill:#f44336;fill-opacity:1;stroke:none;stroke-width:0;stroke-linecap:round;stroke-linejoin:round;stroke-miterlimit:4;stroke-dasharray:none;stroke-dashoffset:0;stroke-opacity:1;paint-order:normal" cx="22.5" cy="21.5" r="7.5"/>
 <path id="path845" style="opacity:1;fill:#ffffff;fill-opacity:1;stroke:none;stroke-width:0;stroke-linecap:round;stroke-linejoin:round;stroke-miterlimit:4;stroke-dasharray:none;stroke-dashoffset:0;stroke-opacity:1;paint-order:normal" d="m 26.389087,17.6109 a 5.5,5.5 0 0 0 -7.778174,0 5.5,5.5 0 0 0 0,7.7782 5.5,5.5 0 0 0 7.778174,0 5.5,5.5 0 0 0 0,-7.7782 z m -0.37565,1.0828 a 4.5,4.5 0 0 1 -0.331456,5.9883 4.5,4.5 0 0 1 -5.98693,0.3301 z m -0.708488,-0.7058 -6.318386,6.3184 a 4.5,4.5 0 0 1 0.331456,-5.9883 4.5,4.5 0 0 1 5.98693,-0.3301 z"/>
 <path id="circle823" style="opacity:0.05;fill:#010101;fill-opacity:1;stroke:none;stroke-width:0;stroke-linecap:round;stroke-linejoin:round;stroke-miterlimit:4;stroke-dasharray:none;stroke-dashoffset:0;stroke-opacity:1;paint-order:normal" d="M 22.5,14 A 7.5,7.5 0 0 0 15,21.5 7.5,7.5 0 0 0 22.5,29 7.5,7.5 0 0 0 30,21.5 7.5,7.5 0 0 0 22.5,14 Z m 0,1 C 26.101696,15 29,17.8983 29,21.5 29,25.1017 26.101696,28 22.5,28 18.898304,28 16,25.1017 16,21.5 16,17.8983 18.898304,15 22.5,15 Z"/>
</svg>

<svg xmlns="http://www.w3.org/2000/svg" id="svg6085" width="32" height="32" version="1.1">
 <defs id="defs6087">
  <filter id="filter850" style="color-interpolation-filters:sRGB" width="1.096" height="1.096" x="-.05" y="-.05">
   <feGaussianBlur id="feGaussianBlur852" stdDeviation=".36"/>
  </filter>
  <filter id="filter848" style="color-interpolation-filters:sRGB" width="1.096" height="1.096" x="-.05" y="-.05">
   <feGaussianBlur id="feGaussianBlur850" stdDeviation=".36"/>
  </filter>
  <filter id="filter859" style="color-interpolation-filters:sRGB" width="1.096" height="1.096" x="-.05" y="-.05">
   <feGaussianBlur id="feGaussianBlur861" stdDeviation=".36"/>
  </filter>
  <filter id="filter903" style="color-interpolation-filters:sRGB" width="1.096" height="1.096" x="-.05" y="-.05">
   <feGaussianBlur id="feGaussianBlur905" stdDeviation=".3"/>
  </filter>
 </defs>
 <path id="path845" style="opacity:0.3;fill:#000000;fill-opacity:1;stroke:none;stroke-width:1.1925025;filter:url(#filter859)" d="m 19.40625,7.5039062 c -0.876371,0.054 -1.644691,0.8357844 -1.679688,1.7089844 L 17.527344,11 c -0.04661,0.4174 -0.31686,0.427792 -0.337891,-0.03711 l -0.07813,-1.7324222 c -0.03789,-0.9477002 -0.953356,-1.7708375 -1.904297,-1.7109376 -0.939324,0.057 -1.742083,0.9616844 -1.68164,1.8964844 l 0.117187,1.9550784 c 0.02495,0.4215 -0.325093,0.500247 -0.412109,0.185547 l -0.144531,-0.523438 c -0.12843,-0.8832 -1.010272,-1.5902905 -1.904297,-1.5253905 -0.983678,0.089 -1.7758907,1.1132315 -1.6074222,2.0820315 l 0.6308592,3.425781 c 0.006,0.1511 -0.03711,0.929687 -0.03711,0.929687 L 9.3457031,14.271484 C 8.145364,15.171284 6.4008759,16.323341 7.2050781,18.869141 8.156868,21.882341 10,25.5 13.546,25.5 H 20.5 c 2.485281,0 4.5,-2.014719 4.5,-4.5 v -7.248047 -1.972656 c -0.0072,-1.1305 -0.789258,-2.316022 -1.921875,-2.232422 -0.766146,0.044 -1.467907,0.633053 -1.642578,1.376953 l -0.210938,1.117188 c -0.06287,0.3334 -0.175359,0.195982 -0.15039,-0.07422 L 21.3125,9.4003906 c 0.0655,-1.0093 -0.892416,-1.9616843 -1.90625,-1.8964844 z"/>
 <path id="path4236-1-58-5-6-0" style="fill:#f4bb8e;fill-opacity:1;stroke:none;stroke-width:1.1925025" d="M 19.4375 7.5019531 A 0.50005 0.50005 0 0 0 19.4375 7.5039062 C 18.838895 7.540791 18.250312 8.139877 18.226562 8.7324219 A 0.50005 0.50005 0 0 1 18.222656 8.7675781 L 18.023438 10.554688 C 18.005895 10.711771 17.970353 10.855656 17.882812 10.998047 C 17.795273 11.140438 17.605592 11.32478 17.326172 11.3125 C 17.046751 11.300224 16.872405 11.097903 16.796875 10.947266 C 16.721343 10.796628 16.696853 10.650931 16.689453 10.486328 L 16.611328 8.7539062 A 0.50005 0.50005 0 0 1 16.611328 8.75 C 16.585819 8.1119773 15.882303 7.477008 15.238281 7.5175781 A 0.50005 0.50005 0 0 0 15.238281 7.5195312 C 14.601042 7.5582002 13.982774 8.2532087 14.023438 8.8828125 A 0.50005 0.50005 0 0 1 14.025391 8.8867188 L 14.142578 10.841797 C 14.163312 11.192068 14.023725 11.580719 13.642578 11.712891 C 13.452005 11.778975 13.218614 11.743972 13.054688 11.632812 C 12.890761 11.521654 12.794177 11.356285 12.748047 11.189453 L 12.603516 10.666016 A 0.50005 0.50005 0 0 1 12.591797 10.605469 C 12.505088 10.009178 11.831821 9.4676425 11.224609 9.5078125 C 10.562049 9.569684 9.9564681 10.352012 10.066406 11 L 10.066406 11.001953 L 10.066406 11.003906 L 10.697266 14.425781 A 0.50005 0.50005 0 0 1 10.705078 14.496094 C 10.711308 14.653104 10.69765 14.844466 10.6875 15.060547 C 10.67737 15.276628 10.667969 15.472656 10.667969 15.472656 A 0.50005 0.50005 0 0 1 9.71875 15.666016 L 9.1894531 14.589844 C 8.732221 14.942055 8.2423091 15.281324 7.9375 15.732422 C 7.521314 16.34835 7.3173453 17.065529 7.6816406 18.21875 C 8.1469252 19.69176 8.831932 21.298491 9.7929688 22.501953 C 10.754005 23.705416 11.94391 24.5 13.546875 24.5 L 20.5 24.5 C 22.715061 24.5 24.5 22.715061 24.5 20.5 L 24.5 13.251953 L 24.5 11.283203 C 24.497127 10.83213 24.328723 10.346694 24.068359 10.017578 C 23.807996 9.6884624 23.500082 9.5165159 23.115234 9.5449219 A 0.50005 0.50005 0 0 1 23.107422 9.546875 C 22.57979 9.5771771 22.045065 10.027281 21.923828 10.537109 L 21.716797 11.632812 C 21.694889 11.74899 21.677457 11.842282 21.591797 11.976562 C 21.548967 12.043704 21.483174 12.140965 21.318359 12.203125 C 21.153545 12.265284 20.911975 12.207091 20.802734 12.119141 C 20.584238 11.943246 20.603807 11.828387 20.585938 11.726562 C 20.568038 11.624739 20.566372 11.525592 20.576172 11.419922 L 20.8125 8.8652344 C 20.854298 8.1912826 20.119162 7.4581151 19.4375 7.5019531 z"/>
 <path id="path838" style="color:#000000;font-style:normal;font-variant:normal;font-weight:normal;font-stretch:normal;font-size:medium;line-height:normal;font-family:sans-serif;font-variant-ligatures:normal;font-variant-position:normal;font-variant-caps:normal;font-variant-numeric:normal;font-variant-alternates:normal;font-feature-settings:normal;text-indent:0;text-align:start;text-decoration:none;text-decoration-line:none;text-decoration-style:solid;text-decoration-color:#000000;letter-spacing:normal;word-spacing:normal;text-transform:none;writing-mode:lr-tb;direction:ltr;text-orientation:mixed;dominant-baseline:auto;baseline-shift:baseline;text-anchor:start;white-space:normal;shape-padding:0;clip-rule:nonzero;display:inline;overflow:visible;visibility:visible;opacity:1;isolation:auto;mix-blend-mode:normal;color-interpolation:sRGB;color-interpolation-filters:linearRGB;solid-color:#000000;solid-opacity:1;vector-effect:none;fill:#eba384;fill-opacity:1;fill-rule:nonzero;stroke:none;stroke-width:2;stroke-linecap:round;stroke-linejoin:round;stroke-miterlimit:4;stroke-dasharray:none;stroke-dashoffset:0;stroke-opacity:1;color-rendering:auto;image-rendering:auto;shape-rendering:auto;text-rendering:auto;enable-background:accumulate" d="M 19.40625 7.0039062 C 18.529879 7.0579063 17.761559 7.8396906 17.726562 8.7128906 L 17.527344 10.5 C 17.480734 10.9174 17.210484 10.927793 17.189453 10.462891 L 17.111328 8.7304688 C 17.073438 7.7827686 16.157972 6.9596313 15.207031 7.0195312 C 14.267707 7.0765313 13.464948 7.9812156 13.525391 8.9160156 L 13.642578 10.871094 C 13.667528 11.292594 13.317485 11.371341 13.230469 11.056641 L 13.085938 10.533203 C 12.957508 9.6500034 12.075666 8.9429125 11.181641 9.0078125 C 10.197963 9.0968125 9.4057503 10.121044 9.5742188 11.089844 L 10.205078 14.515625 C 10.211078 14.666725 10.167969 15.445312 10.167969 15.445312 L 9.3457031 13.771484 C 8.145364 14.671284 6.4008759 15.823341 7.2050781 18.369141 C 8.156868 21.382341 10.000875 25 13.546875 25 L 20.5 25 C 22.985281 25 25 22.985281 25 20.5 L 25 13.251953 L 25 11.279297 C 24.9928 10.148797 24.210742 8.963275 23.078125 9.046875 C 22.311979 9.090875 21.610218 9.6799284 21.435547 10.423828 L 21.224609 11.541016 C 21.161739 11.874416 21.04925 11.736999 21.074219 11.466797 L 21.3125 8.9003906 C 21.378 7.8910906 20.420084 6.9387063 19.40625 7.0039062 z M 19.466797 8.0019531 A 1.0001 1.0001 0 0 0 19.470703 8.0019531 C 19.821884 7.9793691 20.336517 8.4959556 20.314453 8.8359375 L 20.078125 11.375 C 20.064835 11.51879 20.06601 11.654523 20.09375 11.8125 C 20.12148 11.970477 20.0697 12.171203 20.490234 12.509766 C 20.700501 12.679047 21.175687 12.792706 21.496094 12.671875 C 21.8165 12.551044 21.937511 12.365485 22.013672 12.246094 C 22.165994 12.007312 22.178933 11.875568 22.207031 11.726562 L 22.410156 10.650391 C 22.477006 10.372996 22.844611 10.061586 23.134766 10.044922 A 1.0001 1.0001 0 0 0 23.152344 10.044922 C 23.35573 10.029912 23.494999 10.097132 23.677734 10.328125 C 23.860469 10.559114 23.997854 10.94826 24 11.285156 L 24 13.251953 L 24 20.5 C 23.999993 22.444841 22.444841 24 20.5 24 L 13.546875 24 C 12.113944 24 11.08266 23.317266 10.183594 22.191406 C 9.2845269 21.065546 8.6128774 19.507778 8.1582031 18.068359 C 7.8317135 17.034817 8.0048296 16.526814 8.3515625 16.013672 C 8.4992785 15.795062 8.8044164 15.604669 9.03125 15.400391 L 9.2695312 15.886719 A 1.0001 1.0001 0 0 0 11.166016 15.5 C 11.166016 15.5 11.17724 15.302612 11.1875 15.083984 C 11.19777 14.865356 11.214548 14.715034 11.205078 14.476562 A 1.0001 1.0001 0 0 0 11.189453 14.333984 L 10.560547 10.916016 C 10.506117 10.589055 10.920678 10.055588 11.263672 10.013672 C 11.586807 9.9997039 12.050668 10.368032 12.095703 10.677734 A 1.0001 1.0001 0 0 0 12.121094 10.798828 L 12.265625 11.322266 A 1.0001 1.0001 0 0 0 12.267578 11.322266 C 12.338088 11.577255 12.490246 11.854843 12.773438 12.046875 C 13.056627 12.238907 13.473128 12.3012 13.806641 12.185547 C 14.473665 11.954241 14.669617 11.302292 14.640625 10.8125 A 1.0001 1.0001 0 0 0 14.640625 10.810547 L 14.523438 8.8554688 A 1.0001 1.0001 0 0 0 14.523438 8.8515625 C 14.502458 8.5271475 14.932423 8.037916 15.267578 8.0175781 A 1.0001 1.0001 0 0 0 15.269531 8.0175781 C 15.606634 7.9963441 16.098201 8.441186 16.111328 8.7695312 A 1.0001 1.0001 0 0 0 16.113281 8.7753906 L 16.191406 10.507812 C 16.201006 10.720795 16.229526 10.928481 16.351562 11.171875 C 16.473602 11.415269 16.783854 11.787665 17.304688 11.810547 C 17.825519 11.833427 18.167686 11.49214 18.310547 11.259766 C 18.453407 11.027391 18.498055 10.821146 18.521484 10.611328 L 18.720703 8.8242188 A 1.0001 1.0001 0 0 0 18.726562 8.7539062 C 18.739062 8.4420245 19.145959 8.0217224 19.466797 8.0019531 z"/>
 <circle id="circle830" style="opacity:0.3;fill:#000000;fill-opacity:1;stroke:none;stroke-width:0;stroke-linecap:round;stroke-linejoin:round;stroke-miterlimit:4;stroke-dasharray:none;stroke-dashoffset:0;stroke-opacity:1;paint-order:normal;filter:url(#filter903)" cx="22.5" cy="22" r="7.5"/>
 <circle id="path828-6" style="opacity:1;fill:#f44336;fill-opacity:1;stroke:none;stroke-width:0;stroke-linecap:round;stroke-linejoin:round;stroke-miterlimit:4;stroke-dasharray:none;stroke-dashoffset:0;stroke-opacity:1;paint-order:normal" cx="22.5" cy="21.5" r="7.5"/>
 <path id="path845-3" style="opacity:1;fill:#ffffff;fill-opacity:1;stroke:none;stroke-width:0;stroke-linecap:round;stroke-linejoin:round;stroke-miterlimit:4;stroke-dasharray:none;stroke-dashoffset:0;stroke-opacity:1;paint-order:normal" d="m 26.389087,17.6109 a 5.5,5.5 0 0 0 -7.778174,0 5.5,5.5 0 0 0 0,7.7782 5.5,5.5 0 0 0 7.778174,0 5.5,5.5 0 0 0 0,-7.7782 z m -0.37565,1.0828 a 4.5,4.5 0 0 1 -0.331456,5.9883 4.5,4.5 0 0 1 -5.98693,0.3301 z m -0.708488,-0.7058 -6.318386,6.3184 a 4.5,4.5 0 0 1 0.331456,-5.9883 4.5,4.5 0 0 1 5.98693,-0.3301 z"/>
 <path id="circle823" style="opacity:0.05;fill:#010101;fill-opacity:1;stroke:none;stroke-width:0;stroke-linecap:round;stroke-linejoin:round;stroke-miterlimit:4;stroke-dasharray:none;stroke-dashoffset:0;stroke-opacity:1;paint-order:normal" d="M 22.5,14 A 7.5,7.5 0 0 0 15,21.5 7.5,7.5 0 0 0 22.5,29 7.5,7.5 0 0 0 30,21.5 7.5,7.5 0 0 0 22.5,14 Z m 0,1 C 26.101696,15 29,17.8983 29,21.5 29,25.1017 26.101696,28 22.5,28 18.898304,28 16,25.1017 16,21.5 16,17.8983 18.898304,15 22.5,15 Z"/>
</svg>
